packages/kaspersky-hexa-ui-icons/src/iconsSVGs/16/DeviceFirewall.svg

<svg width="16" height="16" viewBox="0 0 16 16" fill="none" xmlns="http://www.w3.org/2000/svg">
<path fill-rule="evenodd" clip-rule="evenodd" d="M3.65635 1.00684C2.19279 1.00684 1.00635 2.19328 1.00635 3.65684V12.3435C1.00635 13.807 2.19279 14.9935 3.65635 14.9935H6.58283L6.59385 14.9936L6.60487 14.9935H12.343C13.8065 14.9935 14.993 13.807 14.993 12.3435V3.65684C14.993 2.19328 13.8065 1.00684 12.343 1.00684H3.65635ZM12.343 13.6935H7.24385V10.7192H13.693V12.3435C13.693 13.0891 13.0886 13.6935 12.343 13.6935ZM5.94385 13.6935V10.7192H2.30635V12.3435C2.30635 13.0891 2.91076 13.6935 3.65635 13.6935H5.94385ZM2.30635 3.65684C2.30635 2.91125 2.91076 2.30684 3.65635 2.30684H5.94385V5.28113H2.30635V3.65684ZM7.24385 5.28113H13.693V3.65684C13.693 2.91125 13.0886 2.30684 12.343 2.30684H7.24385V5.28113ZM2.30635 6.58113V9.41919H8.96631V6.58113H2.30635ZM13.693 6.58113H10.2663V9.41919H13.693V6.58113Z" fill="black"/>
</svg>

<svg xmlns="http://www.w3.org/2000/svg" width="16" height="16" fill="none" viewBox="0 0 16 16"><path fill="#000" fill-rule="evenodd" d="M3.6564 1.0068c-1.4636 0-2.65 1.1865-2.65 2.65v8.6867c0 1.4635 1.1864 2.65 2.65 2.65h2.9264l.011.0001.011-.0001h5.7382c1.4635 0 2.65-1.1865 2.65-2.65V3.6568c0-1.4635-1.1865-2.65-2.65-2.65zm8.6866 12.6867H7.2439v-2.9743h6.4491v1.6243c0 .7456-.6044 1.35-1.35 1.35m-6.3991 0v-2.9743H2.3064v1.6243c0 .7456.6044 1.35 1.35 1.35zM2.3064 3.6568c0-.7456.6044-1.35 1.35-1.35h2.2875v2.9743H2.3064zm4.9375 1.6243h6.4491V3.6568c0-.7456-.6044-1.35-1.35-1.35H7.2439zm-4.9375 1.3v2.838h6.66v-2.838zm11.3866 0h-3.4267v2.838h3.4267z"/></svg>
